svgs/light/transporter-5.svg

<svg xmlns="http://www.w3.org/2000/svg" viewBox="0 0 512 512"><!-- Font Awesome Pro 6.0.0-alpha2 by @fontawesome - https://fontawesome.com License - https://fontawesome.com/license (Commercial License) --><path d="M176 160H336C344.844 160 352 152.844 352 144S344.844 128 336 128H176C167.156 128 160 135.156 160 144S167.156 160 176 160ZM224 32H288C296.844 32 304 24.844 304 16S296.844 0 288 0H224C215.156 0 208 7.156 208 16S215.156 32 224 32ZM80 160H64V144C64 135.156 56.844 128 48 128S32 135.156 32 144V160H16C7.156 160 0 167.156 0 176S7.156 192 16 192H32V208C32 216.844 39.156 224 48 224S64 216.844 64 208V192H80C88.844 192 96 184.844 96 176S88.844 160 80 160ZM336 416C344.844 416 352 408.844 352 400S344.844 384 336 384H176C167.156 384 160 391.156 160 400S167.156 416 176 416H336ZM400 256H112C103.156 256 96 263.156 96 272S103.156 288 112 288H400C408.844 288 416 280.844 416 272S408.844 256 400 256ZM496 32H480V16C480 7.156 472.844 0 464 0S448 7.156 448 16V32H432C423.156 32 416 39.156 416 48S423.156 64 432 64H448V80C448 88.844 455.156 96 464 96S480 88.844 480 80V64H496C504.844 64 512 56.844 512 48S504.844 32 496 32ZM368 448H144C117.531 448 96 469.531 96 496C96 504.844 103.156 512 112 512S128 504.844 128 496C128 487.172 135.172 480 144 480H368C376.828 480 384 487.172 384 496C384 504.844 391.156 512 400 512S416 504.844 416 496C416 469.531 394.469 448 368 448Z"/></svg>

<svg xmlns="http://www.w3.org/2000/svg" viewBox="0 0 512 512"><!--! Font Awesome Pro 6.3.0 by @fontawesome - https://fontawesome.com License - https://fontawesome.com/license (Commercial License) Copyright 2023 Fonticons, Inc. --><path d="M176 160h160C344.8 160 352 152.8 352 144S344.8 128 336 128h-160C167.2 128 160 135.2 160 144S167.2 160 176 160zM224 32h64c8.844 0 16-7.156 16-16S296.8 0 288 0H224C215.2 0 208 7.156 208 16S215.2 32 224 32zM80 160H64V144C64 135.2 56.84 128 48 128S32 135.2 32 144V160H16C7.156 160 0 167.2 0 176S7.156 192 16 192H32v16C32 216.8 39.16 224 48 224S64 216.8 64 208V192h16C88.84 192 96 184.8 96 176S88.84 160 80 160zM336 416c8.844 0 16-7.156 16-16S344.8 384 336 384h-160C167.2 384 160 391.2 160 400S167.2 416 176 416H336zM400 256h-288C103.2 256 96 263.2 96 272S103.2 288 112 288h288C408.8 288 416 280.8 416 272S408.8 256 400 256zM496 32H480V16C480 7.156 472.8 0 464 0S448 7.156 448 16V32h-16C423.2 32 416 39.16 416 48S423.2 64 432 64H448v16C448 88.84 455.2 96 464 96S480 88.84 480 80V64h16C504.8 64 512 56.84 512 48S504.8 32 496 32zM368 448h-224C117.5 448 96 469.5 96 496C96 504.8 103.2 512 112 512S128 504.8 128 496C128 487.2 135.2 480 144 480h224c8.828 0 16 7.172 16 16c0 8.844 7.156 16 16 16s16-7.156 16-16C416 469.5 394.5 448 368 448z"/></svg>
